public/assets/images/device-iphone.svg

<?xml version="1.0" encoding="UTF-8" standalone="no"?>
<svg width="497px" height="1014px" viewBox="0 0 497 1014" version="1.1" xmlns="http://www.w3.org/2000/svg" xmlns:xlink="http://www.w3.org/1999/xlink">
    <!-- Generator: Sketch 3.8.3 (29802) - http://www.bohemiancoding.com/sketch -->
    <title>Apple-iPhone-6-vector-shape</title>
    <desc>Created with Sketch.</desc>
    <defs></defs>
    <g id="Page-1" stroke="none" stroke-width="1" fill="none" fill-rule="evenodd">
        <path d="M494,290 L495.501424,290 C496.329065,290 497,289.328711 497,288.501847 L497,216.498153 C497,215.670746 496.33497,215 495.501424,215 L494,215 L494,74.9994014 C494,33.5783758 460.420697,0 418.993513,0 L78.0064869,0 C36.5815481,0 3,33.5749963 3,74.9994014 L3,128 L1.49857602,128 C0.670935336,128 0,128.677424 0,129.507836 L0,167.492164 C0,168.324919 0.665029764,169 1.49857602,169 L3,169 L3,215 L1.49857602,215 C0.670935336,215 0,215.671289 0,216.498153 L0,288.501847 C0,289.329254 0.665029764,290 1.49857602,290 L3,290 L3,307 L1.49857602,307 C0.670935336,307 0,307.671289 0,308.498153 L0,380.501847 C0,381.329254 0.665029764,382 1.49857602,382 L3,382 L3,939.000599 C3,980.421624 36.5793027,1014 78.0064869,1014 L418.993513,1014 C460.418452,1014 494,980.425004 494,939.000599 L494,290 Z M33,123 L33,889 L464,889 L464,123 L33,123 Z M248,983 C268.98682,983 286,965.98682 286,945 C286,924.01318 268.98682,907 248,907 C227.01318,907 210,924.01318 210,945 C210,965.98682 227.01318,983 248,983 Z M248,979 C266.777681,979 282,963.777681 282,945 C282,926.222319 266.777681,911 248,911 C229.222319,911 214,926.222319 214,945 C214,963.777681 229.222319,979 248,979 Z M170,72 C174.418278,72 178,68.418278 178,64 C178,59.581722 174.418278,56 170,56 C165.581722,56 162,59.581722 162,64 C162,68.418278 165.581722,72 170,72 Z M249,37 C251.761424,37 254,34.7614237 254,32 C254,29.2385763 251.761424,27 249,27 C246.238576,27 244,29.2385763 244,32 C244,34.7614237 246.238576,37 249,37 Z M212.994583,60 C210.788436,60 209,61.7953562 209,64 C209,66.209139 210.78308,68 212.994583,68 L285.005417,68 C287.211564,68 289,66.2046438 289,64 C289,61.790861 287.21692,60 285.005417,60 L212.994583,60 Z" id="Apple-iPhone-6" fill="#000000"></path>
    </g>
</svg>

<?xml version="1.0" encoding="utf-8"?>
<!-- Generator: Adobe Illustrator 16.0.0, SVG Export Plug-In . SVG Version: 6.00 Build 0)  -->
<!DOCTYPE svg PUBLIC "-//W3C//DTD SVG 1.1//EN" "http://www.w3.org/Graphics/SVG/1.1/DTD/svg11.dtd">
<svg version="1.1" xmlns="http://www.w3.org/2000/svg" xmlns:xlink="http://www.w3.org/1999/xlink" x="0px" y="0px" width="497px"
	 height="1014px" viewBox="0 0 497 1014" enable-background="new 0 0 497 1014" xml:space="preserve">
<g id="Layer_2">
	<rect x="25" y="37" fill="#FFFFFF" width="446" height="951.5"/>
</g>
<g id="Layer_1">
	<title>Apple-iPhone-6-vector-shape</title>
	<desc>Created with Sketch.</desc>
	<g>
		<path d="M495.501,215H494V75c0-41.421-33.58-75-75.007-75H78.006C36.581,0,3,33.575,3,75v53H1.498C0.671,128,0,128.677,0,129.508
			v37.984C0,168.325,0.665,169,1.498,169H3v46H1.498C0.671,215,0,215.672,0,216.498v72.004C0,289.329,0.665,290,1.498,290H3v17
			H1.498C0.671,307,0,307.672,0,308.498v72.004C0,381.329,0.665,382,1.498,382H3v557.001C3,980.422,36.579,1014,78.006,1014h340.987
			c41.425,0,75.007-33.574,75.007-74.999V290h1.501c0.827,0,1.499-0.671,1.499-1.498v-72.004C497,215.671,496.334,215,495.501,215z
			 M212.994,60h72.011c2.212,0,3.995,1.791,3.995,4c0,2.205-1.789,4-3.995,4h-72.011c-2.211,0-3.994-1.791-3.994-4
			C209,61.796,210.788,60,212.994,60z M248,983c-20.987,0-38-17.013-38-38c0-20.986,17.013-38,38-38c20.986,0,38,17.014,38,38
			C286,965.987,268.987,983,248,983z M464,889H33V123h431V889z"/>
		<circle cx="248" cy="945" r="34"/>
	</g>
	<circle cx="170" cy="64" r="8"/>
	<circle cx="249" cy="32" r="5"/>
</g>
</svg>
